X: 05
M: 2/2
L: 1/4
K: G
|:\
d2 de | f2 ef |\
gg f>e |[1 d4 :|[2 d3 \
|: (e/f/) |\
gf ed | (dc) B>c | dd cB |
[1 A2 G :|[2 A2 G2 |:\
dd cB | A2 G2 :|

